images/folder-symbolic.svg

<?xml version="1.0" encoding="UTF-8"?>
<svg width="512px" height="512px" enable-background="new 0 0 512 512" version="1.1" viewBox="0 0 512 512" xml:space="preserve" xmlns="http://www.w3.org/2000/svg" xmlns:cc="http://creativecommons.org/ns#" xmlns:dc="http://purl.org/dc/elements/1.1/" xmlns:rdf="http://www.w3.org/1999/02/22-rdf-syntax-ns#"><metadata><rdf:RDF><cc:Work rdf:about=""><dc:format>image/svg+xml</dc:format><dc:type rdf:resource="http://purl.org/dc/dcmitype/StillImage"/></cc:Work></rdf:RDF></metadata><path d="m463.52 94.909h-269.63v-10.37c0-22.908-18.574-41.482-41.482-41.482h-103.7c-22.908 0-41.482 18.574-41.482 41.482v342.22c0 22.907 18.574 41.482 41.482 41.482h414.82c22.908 0 41.482-18.575 41.482-41.482v-290.37c0-22.908-18.574-41.482-41.482-41.482zm-435.56-10.37c0-11.435 9.308-20.741 20.741-20.741h103.7c11.433 0 20.741 9.306 20.741 20.741v31.111h290.37c11.433 0 20.741 9.306 20.741 20.741v20.741h-456.3v-72.593zm435.56 362.97h-414.82c-11.433 0-20.741-9.307-20.741-20.741v-248.89h456.3v248.89c0 11.432-9.307 20.74-20.741 20.74z"/></svg>

<?xml version="1.0" encoding="UTF-8" standalone="no"?>
<svg
   xmlns:dc="http://purl.org/dc/elements/1.1/"
   xmlns:cc="http://creativecommons.org/ns#"
   xmlns:rdf="http://www.w3.org/1999/02/22-rdf-syntax-ns#"
   xmlns:svg="http://www.w3.org/2000/svg"
   xmlns="http://www.w3.org/2000/svg"
   xml:space="preserve"
   width="512px"
   viewBox="0 0 512 512"
   version="1.1"
   id="Layer_1"
   height="512px"
   enable-background="new 0 0 512 512"><metadata
     id="metadata3361"><rdf:RDF><cc:Work
         rdf:about=""><dc:format>image/svg+xml</dc:format><dc:type
           rdf:resource="http://purl.org/dc/dcmitype/StillImage" /><dc:title /></cc:Work></rdf:RDF></metadata><defs
     id="defs3359" /><path
     fill="#37404D"
     style="fill:#333333"
     id="path3355"
     d="M463.518,94.909H193.885v-10.37c0-22.908-18.574-41.482-41.482-41.482H48.699  c-22.908,0-41.482,18.574-41.482,41.482v51.852v72.593v217.78c0,22.907,18.574,41.482,41.482,41.482h414.819  c22.908,0,41.482-18.575,41.482-41.482V136.391C505,113.483,486.426,94.909,463.518,94.909z M27.958,84.539  c0-11.435,9.308-20.741,20.741-20.741h103.705c11.433,0,20.741,9.306,20.741,20.741v10.37v20.741h20.741h269.633  c11.433,0,20.741,9.306,20.741,20.741v20.741H27.958v-20.741V84.539z M463.518,447.506H48.699c-11.433,0-20.741-9.307-20.741-20.741  v-217.78v-31.111h456.301v248.892C484.259,438.198,474.952,447.506,463.518,447.506z" /></svg>
